Costumes/candle1-a.svg

<?xml version="1.0" encoding="UTF-8" standalone="no"?>
<svg
   version="1.1"
   width="21.041098"
   height="125.65326"
   id="svg7"
   sodipodi:docname="candle1-a.svg"
   xmlns:inkscape="http://www.inkscape.org/namespaces/inkscape"
   xmlns:sodipodi="http://sodipodi.sourceforge.net/DTD/sodipodi-0.dtd"
   xmlns="http://www.w3.org/2000/svg"
   xmlns:svg="http://www.w3.org/2000/svg">
  <defs
     id="defs11" />
  <sodipodi:namedview
     id="namedview9"
     pagecolor="#ffffff"
     bordercolor="#000000"
     borderopacity="0.25"
     inkscape:showpageshadow="2"
     inkscape:pageopacity="0.0"
     inkscape:pagecheckerboard="0"
     inkscape:deskcolor="#d1d1d1" />
  <!-- Exported by Scratch - http://scratch.mit.edu/ -->
  <g
     id="ID0.2505933870561421"
     transform="matrix(0.90249997,0,0,0.90249997,-0.70718476,-0.73103013)">
    <path
       id="ID0.5673541482537985"
       fill="#ffffff"
       stroke="none"
       stroke-linecap="round"
       d="m 179.25,78.5 c 14.08,-1.769 28.395,0.319 42.5,0.5 15.148,0.195 30.629,-1.941 45.5,1 3.705,0.745 0.973,-2.326 1,8.5 0.754,43.284 0.737,86.709 1,130 0.224,36.876 0.48,74.036 0.5,111 0.007,9.24 3.65,4.323 -0.5,4.5 -16.582,1.671 -33.316,0.147 -50,0 -14.974,-0.138 -29.843,1.521 -45,-0.5 -3.789,-0.505 -0.503,2.991 -0.5,-6 0.012,-35.966 0.393,-72.036 0.5,-108 0.15,-44.656 -1.617,-89.412 0,-134 0.421,-11.154 1.586,-6.375 5,-7 z"
       transform="matrix(0.23594937,0,0,0.40172413,-39.9,5.4)" />
    <path
       id="ID0.3195285517722368"
       fill="#f0eee0"
       stroke="none"
       d="M 220.5,233.5 H 230 V 334 h -9.5 z"
       transform="translate(-207.5,-195.5)" />
    <path
       id="ID0.09529179334640503"
       fill="#fff45c"
       stroke="none"
       stroke-linecap="round"
       d="m 215.25,196 c 3.688,3.474 7.281,7.769 9.5,12.5 1.655,3.525 2.629,7.585 2.5,11.5 -0.13,3.248 -1.574,6.717 -3.5,9.5 -1.373,2.079 -3.678,5.431 -6,4.5 -3.427,-1.407 -4.497,-5.283 -5.5,-8.5 -1.191,-3.842 -1.511,-7.936 -1,-12 0.676,-4.921 3.407,-9.589 4.5,-14.5 0.274,-1.231 -1.506,-3.926 -0.5,-3 z"
       transform="translate(-206.5,-195)" />
    <path
       id="ID0.6337189464829862"
       fill="#ff8c33"
       stroke="none"
       stroke-linecap="round"
       d="m 218.25,210.5 c 0.691,-0.203 2.712,5.336 3.5,8 0.727,2.387 1.473,4.872 1,7 -0.561,2.714 -1.469,5.997 -3.5,7.5 -0.836,0.603 -1.717,-1.453 -2,-2.5 -0.31,-1.884 -0.559,-3.992 -0.5,-6 0.183,-1.626 0.531,-3.033 0.5,-4.5 0.527,-3.203 0.326,-9.293 1,-9.5 z"
       transform="translate(-206,-195)" />
  </g>
</svg>

<svg version="1.1" width="25" height="141" xmlns="http://www.w3.org/2000/svg" xmlns:xlink="http://www.w3.org/1999/xlink">
  <!-- Exported by Scratch - http://scratch.mit.edu/ -->
  <g id="ID0.2505933870561421" transform="matrix(0.9024999737739563, 0, 0, 0.9024999737739563, 0.15, -0.15)">
    <path id="ID0.5673541482537985" fill="#FFFFFF" stroke="none" stroke-linecap="round" d="M 179.250 78.500 C 193.330 76.731 207.645 78.819 221.750 79 C 236.898 79.195 252.379 77.059 267.250 80 C 270.955 80.745 268.223 77.674 268.250 88.500 C 269.004 131.784 268.987 175.209 269.250 218.500 C 269.474 255.376 269.730 292.536 269.750 329.500 C 269.757 338.740 273.400 333.823 269.250 334 C 252.668 335.671 235.934 334.147 219.250 334 C 204.276 333.862 189.407 335.521 174.250 333.500 C 170.461 332.995 173.747 336.491 173.750 327.500 C 173.762 291.534 174.143 255.464 174.250 219.500 C 174.400 174.844 172.633 130.088 174.250 85.500 C 174.671 74.346 175.836 79.125 179.250 78.500 Z " transform="matrix(0.23594936728477478, 0, 0, 0.4017241299152374, -39.9, 5.4)"/>
    <path id="ID0.3195285517722368" fill="#F0EEE0" stroke="none" d="M 220.500 233.500 L 230 233.500 L 230 334 L 220.500 334 L 220.500 233.500 Z " transform="matrix(1, 0, 0, 1, -207.5, -195.5)"/>
    <path id="ID0.09529179334640503" fill="#FFF45C" stroke="none" stroke-linecap="round" d="M 215.250 196 C 218.938 199.474 222.531 203.769 224.750 208.500 C 226.405 212.025 227.379 216.085 227.250 220 C 227.120 223.248 225.676 226.717 223.750 229.500 C 222.377 231.579 220.072 234.931 217.750 234 C 214.323 232.593 213.253 228.717 212.250 225.500 C 211.059 221.658 210.739 217.564 211.250 213.500 C 211.926 208.579 214.657 203.911 215.750 199 C 216.024 197.769 214.244 195.074 215.250 196 Z " transform="matrix(1, 0, 0, 1, -206.5, -195)"/>
    <path id="ID0.6337189464829862" fill="#FF8C33" stroke="none" stroke-linecap="round" d="M 218.250 210.500 C 218.941 210.297 220.962 215.836 221.750 218.500 C 222.477 220.887 223.223 223.372 222.750 225.500 C 222.189 228.214 221.281 231.497 219.250 233 C 218.414 233.603 217.533 231.547 217.250 230.500 C 216.940 228.616 216.691 226.508 216.750 224.500 C 216.933 222.874 217.281 221.467 217.250 220 C 217.777 216.797 217.576 210.707 218.250 210.500 Z " transform="matrix(1, 0, 0, 1, -206, -195)"/>
  </g>
</svg>
